X: 190
T: Il est bien heureux
N: Derived from Rue3011-Il_est_bien_heureux.krn
C: Pierre de la Rue
%%abc-version 2.0
%%abcx-abcm2ps-target-version 5.9.1 (29 Sep 2008)
%%abc-creator hum2abc beta
%%abcx-conversion-date 2019/02/17 08:01:17
%%abc-edited-by Jesse Rodin
%%abc-edited-by Chris Gage 06-17-2013
%%abcx-initial-encoding-date 2013/08/06/
%%humdrum-veritas 2464303414
%%humdrum-veritas-data 1231123948
%%linebreak <none>
%%barnumbers 0
L: 1/4
M: 2/1
Q: 1/2=120
%%staves [1 2 3 4]
V: 1 clef=treble
V: 2 clef=treble
V: 3 clef=treble-8
V: 4 clef=bass
K: C
[V:1] z8 | 
[V:2] z8 | 
[V:3] d6cB | 
[V:4] z8 | 
[V:1] z8 | 
[V:2] z4A4- | 
[V:3] c2d3ef2- | 
[V:4] z8 | 
[V:1] z8 | 
[V:2] A2GFG2A2- | 
[V:3] f2ede2f2 | 
[V:4] z8 | 
[V:1] A6GF | 
[V:2] ABc4BA | 
[V:3] d2c2A4 | 
[V:4] z8 | 
[V:1] G2A3Bc2- | 
[V:2] B2c2A4 | 
[V:3] z4z2A2- | 
[V:4] z8 | 
[V:1] c2BAB2c2 | 
[V:2] A4G2A2 | 
[V:3] ABcdB2A2 | 
[V:4] z8 | 
[V:1] A2d3ef2 | 
[V:2] F2D2F4 | 
[V:3] d3cA4 | 
[V:4] D,4D,4 | 
[V:1] e2f2d4 | 
[V:2] G2F2A4 | 
[V:3] z2d4cB | 
[V:4] C,2D,3E,F,2- | 
[V:1] c2d2B2A2- | 
[V:2] z2A2G2F2 | 
[V:3] A2f2g2a2- | 
[V:4] F,2E,D,E,2F,2 | 
[V:1] A2d4^c2 | 
[V:2] A8- | 
[V:3] agf2e4 | 
[V:4] D,4A,4 | 
[V:1] d4z4 | 
[V:2] A8 | 
[V:3] f4d4 | 
[V:4] D,8 | 
[V:1] c8 | 
[V:2] z8 | 
[V:3] e8 | 
[V:4] A,3G,A,B,C2- | 
[V:1] c4B4 | 
[V:2] z8 | 
[V:3] z8 | 
[V:4] CB,A,4^G,2 | 
[V:1] c2A4c2- | 
[V:2] c8 | 
[V:3] z8 | 
[V:4] A,4A,4 | 
[V:1] cBA4^G2 | 
[V:2] c4B4 | 
[V:3] z8 | 
[V:4] z8 | 
[V:1] A8 | 
[V:2] c2A4c2- | 
[V:3] z8 | 
[V:4] F,8 | 
[V:1] z8 | 
[V:2] cBA4^G2 | 
[V:3] z8 | 
[V:4] F,4E,4 | 
[V:1] z8 | 
[V:2] A8 | 
[V:3] f8 | 
[V:4] F,2D,4F,2- | 
[V:1] z8 | 
[V:2] z8 | 
[V:3] f4e4 | 
[V:4] F,E,D,4^C,2 | 
[V:1] z8 | 
[V:2] z8 | 
[V:3] f2d4f2- | 
[V:4] D,3E,F,G,A,2- | 
[V:1] z8 | 
[V:2] z8 | 
[V:3] fed4^c2 | 
[V:4] A,G,F,2E,4 | 
[V:1] A8 | 
[V:2] F8 | 
[V:3] d8- | 
[V:4] D,8 | 
[V:1] A4A4 | 
[V:2] F4F4 | 
[V:3] d8 | 
[V:4] z4D,4 | 
[V:1] B4d4- | 
[V:2] G4B4 | 
[V:3] z4d4 | 
[V:4] G,4G,4 | 
[V:1] d2cBc4 | 
[V:2] A8 | 
[V:3] f4e2a2- | 
[V:4] A,8 | 
[V:1] z4c4 | 
[V:2] A4A4 | 
[V:3] a2gfe4 | 
[V:4] A,4A,4 | 
[V:1] d4f4- | 
[V:2] F4F3G | 
[V:3] d8 | 
[V:4] _B,8 | 
[V:1] f2e2e4- | 
[V:2] ABc3BA2 | 
[V:3] z8 | 
[V:4] A,4C4 | 
[V:1] e2d4c_B | 
[V:2] _BAGFG3F | 
[V:3] d8 | 
[V:4] _B,8 | 
[V:1] c8 | 
[V:2] A8- | 
[V:3] e4z2e2- | 
[V:4] A,8- | 
[V:1] c4c4 | 
[V:2] A8 | 
[V:3] e2dce2f2- | 
[V:4] A,8 | 
[V:1] B4A4 | 
[V:2] z8 | 
[V:3] f2e4d2 | 
[V:4] G,4F,4 | 
[V:1] G4z2e2- | 
[V:2] z8 | 
[V:3] e8 | 
[V:4] E,8 | 
[V:1] e2dce2f2- | 
[V:2] A8 | 
[V:3] z8 | 
[V:4] z8 | 
[V:1] f2e4d2 | 
[V:2] G4F4 | 
[V:3] z8 | 
[V:4] z8 | 
[V:1] e4e2c2- | 
[V:2] E4z2A2- | 
[V:3] z8 | 
[V:4] z8 | 
[V:1] c2BAc2d2- | 
[V:2] A2GFA2B2- | 
[V:3] z8 | 
[V:4] z8 | 
[V:1] dcBAB4 | 
[V:2] B2A4^G2 | 
[V:3] z4e4 | 
[V:4] z8 | 
[V:1] A4A4 | 
[V:2] A4z4 | 
[V:3] f4e2f2- | 
[V:4] z4A,4 | 
[V:1] c4c4 | 
[V:2] A4A4 | 
[V:3] f2ede4 | 
[V:4] A,4A,4 | 
[V:1] d3cBAf2 | 
[V:2] A3GFDA2 | 
[V:3] d4f4 | 
[V:4] D,8 | 
[V:1] e2d4^c2 | 
[V:2] B4A4 | 
[V:3] g3fe4 | 
[V:4] G,4A,4 | 
[V:1] d4B4 | 
[V:2] F4G4 | 
[V:3] d8 | 
[V:4] _B,4G,4 | 
[V:1] c4z2c2 | 
[V:2] A4z2A2 | 
[V:3] z2f2f2f2 | 
[V:4] z2F,2F,2F,2 | 
[V:1] c2c2d4 | 
[V:2] A2A2_B2AG | 
[V:3] c4g4 | 
[V:4] A,4G,4 | 
[V:1] A4z2c2 | 
[V:2] F4z2A2 | 
[V:3] z2a2g2f2 | 
[V:4] z2F,2E,2F,2 | 
[V:1] B2c2d2cB | 
[V:2] G2A4G2 | 
[V:3] d4d4- | 
[V:4] G,2F,E,D,4 | 
[V:1] A4ABcd | 
[V:2] F3EE4- | 
[V:3] d4c4 | 
[V:4] D,E,F,G,A,4 | 
[V:1] e4e4 | 
[V:2] E4z4 | 
[V:3] c3Bcde2- | 
[V:4] A,4z2A,2- | 
[V:1] z2e2e2e2 | 
[V:2] z8 | 
[V:3] ed^cB^c4 | 
[V:4] A,2G,F,E,4 | 
[V:1] f8 | 
[V:2] A4A2_B2- | 
[V:3] d8 | 
[V:4] D,4z2D2 | 
[V:1] e4d4 | 
[V:2] B2A4G2 | 
[V:3] z4z2d2 | 
[V:4] C4_B,4 | 
[V:1] c2f2e2d2 | 
[V:2] A3_BcBAG | 
[V:3] e2f2gfed | 
[V:4] A,2D2C2_B,2 | 
[V:1] c3Bcde2- | 
[V:2] A4A2G2- | 
[V:3] e2f4e2 | 
[V:4] A,6C2 | 
[V:1] e2d4^c2 | 
[V:2] GA_B2A4 | 
[V:3] f2g2e4 | 
[V:4] _B,2G,2A,4 | 
[V:1] d8 |]  
[V:2] F8 |]  
[V:3] d8 |]  
[V:4] D,8 |]  



